X:57
T:Mississippi Sawyer
K:D
M:4/4
L:1/8
Z:abc-transcription Josh Larios <hades@elsewhere.org>, 2014.04.15
B:Sarah Comer, Dusty Strings dance band class.
|: fg | "D"a2afa2af | a2aab2a2 | "G"g2geg2ge | g2gga2g2 |
"D"f2fgf2e2 | defga2a2 | "G"ABcd "A"egfe | "D"d2ddd2 :|
|: AB | "D"d2f2d2f2 | defga2a2 | "A"A2cBA2cB | ABcd egfe |
"D"d2f2d2f2 | defga2a2 | "G"ABcd "A"egfe | "D"d2ddd2 :|

